X:1415
T:Härjedalspolska efter Johan Persson Bergström
R:Polska
Z:Lennart Sohlman
O:Härjedalen
S:efter [[!Fritiof Mesch]], Linsell
M:3/4
L:1/8
Q:150
K:Dm
A2 G2 ((3FDF)|((3ED^C) D2 A,2-|A,>(A E>)^C D2|E2 ((3FGF) ((3EDE)|!
A2 G2 ((3FDF)|((3ED^C) D2 A,2-|A,>(A E>)^C D>F|((3ED^C) D4::!
K:D
(A>d) (f>a) g>e|c>d ((3ege) (f>a)|((3geg) (f>d) (3g(ec)|(d>e) (f>d) c>A|!
(A>d) (f>a) g>e|c>d ((3ege) (f>a)|((3geg) (f>d) (3g(ec)|{c}d2 d4:|]
(:musicend:)
Jfr [[Musik/1394|+]] (med omkastade repriser)
(:music:)
